X: 41
T: 30 Year, The
R: jig
M: 6/8
K: Gmajor
|:~g3 agf|g2 g d(3B^cd|egf edc|BAG ABd|
~g3 agf|g g2 d(3B^cd|egf edB-|Bgf edB|
cBA ~B3|ced BAB|cBc eag|1 f2g- gz2:|2 f2g- gzD||

